www/assets/icons/wysiwyg.svg

<svg width="24" height="24" viewBox="0 0 24 24" xmlns="http://www.w3.org/2000/svg" fill='currentColor'><path d="M19 3H5C3.89 3 3 3.9 3 5V19C3 20.1 3.89 21 5 21H19C20.1 21 21 20.1 21 19V5C21 3.9 20.11 3 19 3ZM19 19H5V7H19V19ZM17 12H7V10H17V12ZM13 16H7V14H13V16Z"/></svg>

<svg xmlns="http://www.w3.org/2000/svg" width="24" height="24" viewBox="0 0 24 24" fill='currentColor'><path d="M19 3H5a2 2 0 0 0-2 2v14a2 2 0 0 0 2 2h14c1.1 0 2-.9 2-2V5a2 2 0 0 0-2-2m0 16H5V7h14zm-2-7H7v-2h10zm-4 4H7v-2h6z"/></svg>
